X:196
T:John Creaven's South Bend Reel
R:reel
N:South Bend Session Track 28, last tune
Z:Bill Reeder
M:4/4
L:1/8
K:D
dB|A2AF DEFA|B2Bd BAFA|d2dB ABde|fedf e2dB|!
A2AF DEFA|B2Bd BAFA|d2dB AFDF|EDEF D2:||!
fe|defg afdf|g2fd edBA|defg afdf|g2fd e2fe|!
defg afdf|g2fd edBA|dedB AFDF|EDEF D2:||
